X: 1443
T: Anascaul, The
R: polka
M: 2/4
K: Adorian
|:AB cd|ef g2|ag/e/ dB|AB G2|
A>B cd|ef ge/g/|ag/e/ dB|A2 A2:|
|:ag ed|ef ge|ag/e/ dB|AB G2|
A>B cd|ef g2|a/b/a/g/ e/d/B|A2 A2:|

